X:1
T:Tantum Ergo
T:Tantum Ergo
T:Mélanie "Mel" Bonis (1858-1937)
C:Mélanie "Mel" Bonis (1858-1937)
%%score [ 1 2 3 4 ]
L:1/8
Q:1/4=72
M:3/4
K:D
V:1 treble nm="Soprano"
V:2 treble nm="Alto"
V:3 treble-8 nm="Tenor"
V:4 bass nm="Bass"
V:1
"^Moderato" z6 |!p! A4 A2 | B4 B2 | c4 c2 | d4 d2 | (d2 c2) B2 | A4 A2 | A4 ^G2 | A4 z2 | %9
w: |Tan- tum|er- go|sa- cra-|men- tum|ve- * ne-|re- mur|cer- nu-|i.|
!p! B4 A2 | A4 G2 |!f! e4 d2 | d4 c2 | (d2 c2) B2 | (B2 A2) G2 |!>(! F4 F2 | F6!>)! |!p! F4 E2 | %18
w: Et an-|ti- quum|do- cu-|men- tum|no- * vo|ce- * dat|ri- tu-|i.|Præs- tet|
 E4 ^D2 |!<(! (E2 G2) F2!<)! |!>(! F4 ^E2!>)! |!<(! (F2 ^G2) A2 | (B2 A2) ^G2!<)! | (A2 ^G2) F2 | %24
w: fi- des|sup- * ple-|men- tum|sen- * su-|um _ de-|fec- * tu-|
 ^E6 | z2!mf! c2 c2 | c4 c2 | z2"^cresc." c2 c2 | c4 c2 | (d2 A2) f2- | f2 f2 e2 | (d2 A2) G2 | %32
w: i.|Ge- ni-|to- ri,|Ge- ni-|to- que|laus _ et|_ ju- bi-|la- * ti-|
 A4 z2 | z6 | z6 | z2 z2!f! f2 | f2 z2 d2 | d2 z2 B2 | (g2 f2) e2 | f4!mf! c2 | c2 B2 ^A2 | %41
w: o|||Sa-|lus ho-|nor, vir-|tus _ quo-|que sit|et be- ne-|
 c4!>(! B2 | _B6!>)! |!pp! =A4 A2 | (A2 B2) =c2 | z2"^cresc." B2 B2 | (B2 ^c2) d2 | z2 e2 d2 | %48
w: dic- ti-|o,|Pro- ce-|den- * ti|ab u-|tro- * que|com- par|
 (d2 e2) ^e2 |!f! f4 =e2 | (e2 d4) | z2 (c2 B2) | A6 | z2!>(! (G2 F2) |"^rit." E6!>)! | %55
w: sit _ lau-|da- ti-|o. _|A- *|men,|a- *|men,|
!p!!>(! D6- | D6!>)! | D6 |] %58
w: a-||men.|
V:2
!p! F4 E2 | E4 D2 | G4 F2 | F4 E2 | (D2 E2) F2 | G4 G2 | (G2 F2) E2 | F2 E4 | E2 E2 !breath!C2 | %9
w: Tan- tum|er- go|sa- cra-|men- tum|ve- * ne-|re- mur,|ve- * ne-|re- mur|cer- nu- i.|
!p! B,4 C2 | ^D4 E2 |!f! E4 E2 | (E2 F2) E2 | (D2 E2) F2 | E4 E2 |!>(! E2 D4- | D2 C4!>)! | %17
w: Et an-|ti- quum|do- cu-|men- * tum|no- * vo|ce- dat|ri- tu-|* i.|
!p! D4 C2 | =C4 C2 |!<(! B,4 ^C2!<)! |!>(! D4 D2!>)! |!<(! C4 C2 | D4 D2!<)! | ^D4 D2 | C6 | %25
w: Præs- tet|fi- des|sup- ple-|men- tum|sen- su-|um de-|fec- tu-|i.|
 z2!mf! C2 C2 | (C2 D2) ^D2 | z2"^cresc." E2 ^E2 | (^E2 F2) G2 | F4 A2- | A2 A2 A2 | A4 D2 | %32
w: Ge- ni-|to- * ri,|Ge- ni-|to- * que|laus et|_ ju- bi-|la- ti-|
 C4 z2 | z2 z2!mf! F2 | G2 z2"^cresc." B2 | (^A2 B2) c2 | (d2 B2) F2 | (B2 G2) D2 | C4 C2 | %39
w: o|Sa-|lus, ho-|nor, _ sa-|lus, _ ho-|nor, _ vir-|tus quo-|
 C4!mf! F2 | ^E2 E2 F2 | ^E4!>(! E2 | ^E6!>)! |!pp! F4 E2 | E4 D2 | z2"^cresc." G2 F2 | F4 ^E2 | %47
w: que sit|et be- ne-|dic- ti-|o,|Pro- ce-|den- ti|ab u-|tro- que|
 F4 G2 | ^G4 G2 |!f! (A2 B2) c2 | A2 (B2 A2) | G6 | z2 (F2 E2) | D6 |"^rit."!>(! (D2 C2) =C2!>)! | %55
w: com- par|sit lau-|da- * ti-|o. A- *|men,|a- *|men,|a- * men,|
!p!!>(! (=C2 B,4- | B,2 _B,4)!>)! | A,6 |] %58
w: a- *||men.|
V:3
!p! c4 c2 | c4 d2 | (d2 e2) B2 | A4 A2 | (A2 B2) =c2 | d2 e4 | e2 d2 A2 | d2 c2 B2 | A6 | %9
w: Tan- tum|er- go|sa- * cra-|men- tum|ve- * ne-|re- mur,|ve- ne- re-|mur cer- nu-|i.|
!p! G4 F2 | F4 E2 |!f! (G2 A2) B2 | A4 G2 | F4 F2 | (G2 A2) B2 |!>(! (^A2 B2) ^G2- | G2 ^A4!>)! | %17
w: Et an-|ti- quum|do- * cu-|men- tum|no- vo|ce- * dat|ri- * tu-|* i.|
!p! =A4 G2 | F4 F2 |!<(! G4 A2!<)! |!>(! B4 B2!>)! |!<(! A2 (^E2 F2) | F4 F2!<)! | (F2 ^G2) A2 | %24
w: Præs- tet|fi- des|sup- ple-|men- tum|sen- su- *|um de-|fec- * tu-|
 ^G6 | z6 |!mf! A4 ^A2 |"^cresc." B4 B2 | c4 e2 | d4 c2 | B2 c2 c c | (d2 D2) D2 | %32
w: i.||Ge- ni-|to- ri,|Ge- ni-|to- que|laus et ju- bi-|la- * ti-|
 !breath!E4!mf! A2 | B2 z2 d2 | c2 z2"^cresc." c2 | c4 z2 | B2 d2 z2 | d2 B4 | B6 | ^A4!mf! A2 | %40
w: o Sa-|lus, ho-|nor, sa-|lus,|ho- nor,|vir- tus|quo-|que sit|
 B2 B2 c2 | B2!>(! c4 | d6!>)! |!pp! d4 c2 | A4 A2 |"^cresc." d4 d2 | (d2 c2) B2 | =c4 d2 | %48
w: et be- ne-|dic- ti-|o,|Pro- ce-|den- ti|ab u-|tro- * que|com- par|
 (=f2 e2) d2 |!f! d2 g4 | ^f2 (g2 f2) | (e4 d2) | (c2 d2 c2) | B6 |"^rit."!>(! (B2 A2 G2!>)! | %55
w: sit _ lau-|da- ti-|o. A- *|men. _|a- * *|men.|a- * *|
!p!!>(! F2 G2 F2 | E2 D2 E2)!>)! | F6 |] %58
w: ||men.|
V:4
!p! A,4 G,2 | G,4 F,2 | (F,2 E,2) D,2 | A,,2 G,,4 | (([F,,F,]2 [G,,G,]2)) [A,,A,]2 | %5
w: Tan- tum|er- go|sa- * cra-|men- tum|ve- * ne-|
 [B,,B,]2 [^C,^C]4 | (C,2 D,2) C,2 | (B,,2 C,2) D,2 | D,2 C,2 !breath!A,,2 | z6 | z6 | %11
w: re- mur,|ve- * ne-|re- * mur|cer- nu- i.|||
!mf! (E,2 F,2) G,2 | (A,2 A,,2) ^A,,2 | (B,,2 C,2) D,2 | C,4 C,2 |!>(! (C,2 D,2) B,,2 | F,,6!>)! | %17
w: do- * cu-|men- * tum|no- * vo|ce- dat|ri- * tu-|i.|
 z6 |!p! A,,4 A,,2 |!<(! A,,4 A,,2!<)! |!>(! ^G,,4 G,,2!>)! |!<(! (A,,2 ^G,,2) F,,2 | %22
w: |Præs- tet|fi- des|sup- ple-|men- * tum|
 B,,4 B,,2!<)! | ^B,,4 B,,2 | C,4 C,2 | C,4 z2 |!mf! F,4 ^^F,2 |"^cresc." ^G,4 G,2 | A,4 A,2 | %29
w: sen- su-|um de-|fec- tu-|i.|Ge- ni-|to- ri,|Ge- ni-|
 A,4 A,2 | A,2 A,2 G, G, | F,4 B,,2 | !breath!A,,4!mf! A,2 | (A,2 G,2) F,2 | %34
w: to- que|laus et ju- bi-|la- ti-|o Sa-|lus, _ ho-|
 (E,2 F,2)"^cresc." G,2 | (F,2 ^G,2) ^A,2 | (B,4 =A,2) | G,4 F,2 | (E,2 F,2 G,2) | F,4!mf! F,2 | %40
w: nor, _ sa-|lus, _ ho-|nor, _|vir- tus|quo- * *|que sit|
 ^G,2 G,2 ^A,2 | ^G,4!>(! G,2 | ^G,6!>)! |!pp! A,4 =G,2 | F,4 F,2 |"^cresc." G,4 G,2 | ^G,4 G,2 | %47
w: et be- be-|dic- ti-|o,|Pro- ce-|den- ti|ab u-|tro- que|
 A,4 B,2 | B,4 _B,2 |!f! A,4 A,2 | A,6 | A,6- | A,6 | A,,4 z2 |"^rit."!>(! (^G,,2 A,,2) D,2!>)! | %55
w: com- par|sit lau-|da- ti-|o.|A-||men,|a- * men,|
!p!!>(! (D,2 =G,,4- | G,,6)!>)! | D,6 |] %58
w: a- *||men.|

